icons/linkedin-box-fill.svg

<svg viewBox="0 0 24 24" fill="currentColor" xmlns="http://www.w3.org/2000/svg">
    <path d="M18.3362 18.339H15.6707V14.1622C15.6707 13.1662 15.6505 11.8845 14.2817 11.8845C12.892 11.8845 12.6797 12.9683 12.6797 14.0887V18.339H10.0142V9.75H12.5747V10.9207H12.6092C12.967 10.2457 13.837 9.53325 15.1367 9.53325C17.8375 9.53325 18.337 11.3108 18.337 13.6245V18.339H18.3362ZM7.00373 8.57475C6.14573 8.57475 5.45648 7.88025 5.45648 7.026C5.45648 6.1725 6.14648 5.47875 7.00373 5.47875C7.85873 5.47875 8.55173 6.1725 8.55173 7.026C8.55173 7.88025 7.85798 8.57475 7.00373 8.57475ZM8.34023 18.339H5.66723V9.75H8.34023V18.339ZM19.6697 3H4.32923C3.59498 3 3.00098 3.5805 3.00098 4.29675V19.7033C3.00098 20.4202 3.59498 21 4.32923 21H19.6675C20.401 21 21.001 20.4202 21.001 19.7033V4.29675C21.001 3.5805 20.401 3 19.6675 3H19.6697Z"/>
</svg>

<svg xmlns="http://www.w3.org/2000/svg" viewBox="0 0 24 24">
    <g>
        <path fill="none" d="M0 0h24v24H0z"/>
        <path fill-rule="nonzero" d="M18.335 18.339H15.67v-4.177c0-.996-.02-2.278-1.39-2.278-1.389 0-1.601 1.084-1.601 2.205v4.25h-2.666V9.75h2.56v1.17h.035c.358-.674 1.228-1.387 2.528-1.387 2.7 0 3.2 1.778 3.2 4.091v4.715zM7.003 8.575a1.546 1.546 0 0 1-1.548-1.549 1.548 1.548 0 1 1 1.547 1.549zm1.336 9.764H5.666V9.75H8.34v8.589zM19.67 3H4.329C3.593 3 3 3.58 3 4.297v15.406C3 20.42 3.594 21 4.328 21h15.338C20.4 21 21 20.42 21 19.703V4.297C21 3.58 20.4 3 19.666 3h.003z"/>
    </g>
</svg>
